X:509
T: Miss Shepherd
M: C
L: 1/8
C: by  J Scott Skinner
K: Am
A | "Am"A,B,CD "D7"E2 DC | "G"B,G^FG DB,G,B, | "Am"A,B,CD E^GAc | "E7"BA^GB "Am"cA2 :|
^g | "Am"a2 ed "D7"cBA^F | "G"G2 DC B,A,G, ^g | "Am"a2 ed cBAc | "E7"BA^GB "Am"cAA^g |
|"Am"a/2a/2a ed "D7"cBA^F | "G"G/2G/2G DC B,A,G,B, | "Am"A,B,CD E^GAc | "E7"BA^GB "Am"cA A2 ||

%%newpage
%%scale 0.7

